src/assets/Icons/Services=Customer service.svg

<svg width="80" height="80" viewBox="0 0 80 80" fill="none" xmlns="http://www.w3.org/2000/svg">
<path opacity="0.3" d="M80 40C80 62.0914 62.0914 80 40 80C17.9086 80 0 62.0914 0 40C0 17.9086 17.9086 0 40 0C62.0914 0 80 17.9086 80 40ZM10.9071 40C10.9071 56.0675 23.9325 69.0929 40 69.0929C56.0675 69.0929 69.0929 56.0675 69.0929 40C69.0929 23.9325 56.0675 10.9071 40 10.9071C23.9325 10.9071 10.9071 23.9325 10.9071 40Z" fill="#2F2E30"/>
<circle cx="40" cy="40" r="29" fill="black"/>
<path d="M30.4 53V36.75C30.4 34.1641 31.4114 31.6842 33.2118 29.8557C35.0121 28.0272 37.4539 27 40 27C42.5461 27 44.9879 28.0272 46.7882 29.8557C48.5886 31.6842 49.6 34.1641 49.6 36.75V53M24 42.5431C24 39.207 27.2 38.375 30.4 38.375V53C28.7026 53 27.0747 52.3152 25.8745 51.0962C24.6743 49.8772 24 48.2239 24 46.5V42.5431ZM56 42.5431C56 39.207 52.8 38.375 49.6 38.375V53C51.2974 53 52.9252 52.3152 54.1255 51.0962C55.3257 49.8772 56 48.2239 56 46.5V42.5431Z" stroke="#FAFAFA" stroke-width="2" stroke-linecap="round" stroke-linejoin="round"/>
</svg>

<svg xmlns="http://www.w3.org/2000/svg" width="80" height="80" fill="none" xmlns:v="https://vecta.io/nano"><path opacity=".3" d="M80 40c0 22.091-17.909 40-40 40S0 62.091 0 40 17.909 0 40 0s40 17.909 40 40zm-69.093 0c0 16.068 13.025 29.093 29.093 29.093S69.093 56.068 69.093 40 56.068 10.907 40 10.907 10.907 23.933 10.907 40z" fill="#2f2e30"/><circle cx="40" cy="40" r="29" fill="#000"/><path d="M30.4 53V36.75c0-2.586 1.011-5.066 2.812-6.894S37.454 27 40 27s4.988 1.027 6.788 2.856S49.6 34.164 49.6 36.75V53M24 42.543c0-3.336 3.2-4.168 6.4-4.168V53a6.35 6.35 0 0 1-4.525-1.904C24.674 49.877 24 48.224 24 46.5v-3.957zm32 0c0-3.336-3.2-4.168-6.4-4.168V53a6.35 6.35 0 0 0 4.526-1.904C55.326 49.877 56 48.224 56 46.5v-3.957z" stroke="#fafafa" stroke-width="2" stroke-linecap="round" stroke-linejoin="round"/></svg>
